!!!!SEGMENT: pl-kk--kk-i-66--008_anonim--missa-dona-nobis.krn
!!!cenid: 17xx:2265
!!!COM: Anonim
!!!COM-rismID: pe30004985
!!!CDT:
!!!CNT:
!!!OPR: Missa
!!!OTL: Dona nobis
!!!OMV: 008
!!!PDT:
!!!AGN: Sacred; Mass
!!!SMS-siglum: PL-Kk
!!!SMS-shelfmark: Kk.I.66
!!!SMS-shelfwork: 001-008 M
!!!SMS-variant: Basso PL-Kk Kk.I.66 0014
!!!SMS-altvar: Basso PL-Kk Kk.I.66 0020
!!!NIFC-rismSourceID: 1001154622
!!!NIFC-rismChildID: 1001154622
!!!NIFC-islandoraID: pl-kk:2804
!!!URL-pdf-islandora: https://repozytorium.nifc.pl/islandora/object/pl-kk%3A2804/datastream/PDF/view
!!!URL-scan: https://polish.musicsources.pl/pl/lokalizacje/galeria/rekopisy/6137 @EN{Scan on Polish Music Sources Website} @PL{Skany w portalu Dziedzictwo Muzyki Polskiej w otwartym dostępie}
!!!ONB-nifc: UWAGA: części Mszy: 1. Salve sancta parens, 2. Kyrie, 3. Et in terra, 4. Alleluia virga jesse floruit, 5. Beata es virgo Maria, 6. Sanctus, 7. Agnus Dei, 8. Dona nobis, 9. Deo gratias
!!!AIN: 1 empty 2 tenor
!!!key:
**kern	**text	**kern	**text	**kern	**text
*part3	*part3	*part2	*part2	*part1	*part1
*staff3	*staff3	*staff2	*staff2	*staff1	*staff1
*Iempty	*	*Itenor	*	*Itenor	*
*I"Baſso	*	*I"Tenore Secundo.	*	*I"Tenore Primo	*
*I'B	*	*I'T 2	*	*I'T 1	*
*clefF4	*	*clefC4	*	*clefC4	*
*k[]	*	*k[]	*	*k[]	*
*C:	*	*C:	*	*C:	*
*M2/2	*	*M2/2	*	*M2/2	*
*met(c|)	*	*met(c|)	*	*met(c|)	*
*2\right	*	*2\right	*	*2\right	*
=1	=1	=1	=1	=1	=1
!	!	!	!	!LO:TX:t=P:problem=2\right&colon; global	!
0r	.	1r	.	4c\	Do-
.	.	.	.	4d\	.
.	.	.	.	4e\	-na
.	.	.	.	4f\	.
=2-	=2	=2	=2	=2	=2
.	.	4G\	Do-	2g\	no-
.	.	4A\	-na	.	.
.	.	4B\	no-	2g\	-bis
.	.	4c\	-bis	.	.
=3-	=3	=3	=3	=3	=3
1r	.	4d\	pa-	4f\	pa-
.	.	4c\	.	4e\	.
.	.	4d\	.	4f\	.
.	.	4B\	.	4d\	.
=4	=4	=4	=4	=4	=4
4C/	Do-	2c\	-cem	2e\	-cem
4D/	.	.	.	.	.
4E/	.	4G/	do-	4e\	do-
4F/	-na	4G/	-na	4e\	-na
=5	=5	=5	=5	=5	=5
4G\	no-	2B\	no-	2d\	no-
4A\	.	.	.	.	.
4B\	-bis	2B\	-bis	2d\	-bis
4G\	.	.	.	.	.
=6	=6	=6	=6	=6	=6
4c\	pa-	1G	pa-	1e	pa-
4G\	.	.	.	.	.
4E\	.	.	.	.	.
4C/	.	.	.	.	.
=7	=7	=7	=7	=7	=7
2G\	-cem	2B\	-cem	2d\	-cem
4G\	do-	4B\	do-	4d\	do-
4G\	-na	4c\	-na	4e\	-na
=8	=8	=8	=8	=8	=8
!	!	!	!	!LO:LB:g=original	!
4G\	no-	4d\	no-	4f\	no-
4A\	.	4c\	.	4e\	.
4B\	.	4B\	.	4d\	-bis
4G\	-bis	4d\	-bis	4f\	.
=9	=9	=9	=9	=9	=9
!	!	!LO:LB:g=original	!	!	!
4c\	pa-	4e\	pa-	4g\	pa-
4G\	.	4d\	.	4f\	.
4E\	.	4c\	.	4e\	.
4C/	.	4e\	.	4g\	.
=10	=10	=10	=10	=10	=10
!LO:LB:g=original	!	!	!	!	!
2.F\	.	4d\	.	4f\	.
.	.	4c\	.	4e\	.
.	.	4B\	.	4d\	.
4F#X\	.	4A\	.	4c\	.
=11	=11	=11	=11	=11	=11
2G\	-cem	2B\	-cem	2d\	-cem
4G\	do-	4d\	do-	4f\	do-
4G\	-na	4B\	-na	4d\	-na
=12	=12	=12	=12	=12	=12
4G\	no-	4c\	no-	4e\	no-
4F\	.	4B\	.	4d\	.
4E\	.	4c\	.	4e\	.
4D\	.	4d\	.	4f\	.
=13	=13	=13	=13	=13	=13
4C\	.	4e\	.	4g\	.
4D\	.	4d\	.	4f\	.
4E\	.	4c\	.	4e\	.
4F\	-bis	4B\	-bis	4d\	-bis
=14	=14	=14	=14	=14	=14
1G	pa-	2c\	pa-	2e\	pa-
.	.	2B\	.	2d\	.
=15	=15	=15	=15	=15	=15
!	!	!	!	!LO:LB:g=original	!
2C/	-cem	2G/	-cem	2e\	-cem
4G\	do-	4B\	do-	4d\	do-
4G\	-na	4c\	-na	4e\	-na
=16	=16	=16	=16	=16	=16
4G\	no-	2d\	no-	2f\	no-
4A\	.	.	.	.	.
4B\	.	2B\	-bis	2d\	-bis
4G\	-bis	.	.	.	.
=17	=17	=17	=17	=17	=17
!	!	!LO:LB:g=original	!	!	!
2c\	pa-	2c\	pa-	2e\	pa-
2C/	.	2e\	.	2g\	.
=18	=18	=18	=18	=18	=18
!LO:LB:g=original	!	!	!	!	!
2.F\	.	4d\	.	4f\	.
.	.	4c\	.	4e\	.
.	.	4B\	.	4d\	.
4F#X\	.	4A\	.	4c\	.
=19	=19	=19	=19	=19	=19
2G\	-cem	2B\	-cem	2d\	-cem
4G\	do-	4d\	do-	4f\	do-
4G\	-na	4B\	-na	4d\	-na
=20	=20	=20	=20	=20	=20
4G\	no-	4c\	no-	4e\	no-
4F\	.	4B\	.	4d\	.
4E\	.	4c\	.	4e\	.
4D\	.	4d\	.	4f\	.
=21	=21	=21	=21	=21	=21
4C\	.	4e\	.	4g\	.
4D\	.	4d\	.	4f\	.
4E\	.	4c\	.	4e\	.
4F\	-bis	4B\	-bis	4d\	-bis
=22	=22	=22	=22	=22	=22
!	!	!	!	!LO:LB:g=original	!
1G	pa-	2c\	pa-	2e\	pa-
.	.	2B\	.	2d\	.
=23	=23	=23	=23	=23	=23
2C/	-cem	2c\	-cem	2e\	-cem
2G\	pa-	2B\	pa-	2d\	pa-
=24	=24	=24	=24	=24	=24
2c\	-cem	2c\	-cem	2e\	-cem
2G\	pa-	2B\	pa-	2d\	pa-
=25	=25	=25	=25	=25	=25
2C/	-cem.	2G/	-cem	2e\	-cem.
2r	.	2r	.	2r	.
==	==	==	==	==	==
*-	*-	*-	*-	*-	*-
!!!system-decoration: [(s1,s2,s3)]
!!!ENC: Kamil Watkowski
!!!END: 2021-08-06
!!!YEC: Copyright 2022 Narodowy Instytut Fryderyka Chopina (https://polishscores.org)
!!!YEM: License CC-BY-4.0 (https://creativecommons.org/licenses/by/4.0)
